X:1
T:J. S. Bach
T:BWV 937 Little Prelude in E major
T:Six Little Preludes No. 5
%%score { ( 1 3 ) | 2 }
L:1/8
M:4/4
K:E
V:1 treble nm="Harp"
V:3 treble 
V:2 bass 
V:1
 z BeB cAFB | EF/G/ AG FBAG | F/B/^A/B/ D/B/A/B/ E/B/c/B/ A/G/F/E/ | %3
 D/B/^A/B/ G/B/F/B/ E/B/D/B/ C/B/B,/B/ | ^Acfc d=cGf | e/a/g/a/ f/a/g/a/ d/a/b/a/ g/f/e/d/ | %6
 eBeB cAFB | EF/G/ AG FBAG | FE/F/ GF Ee d/c/d/e/ | f/e/g/f/ e/d/c/B/ B4 | z BeB cAFB | %11
 EF/G/ AG FBAG | F/B/^A/B/ D/B/A/B/ E/B/c/B/ A/G/F/E/ | D/B/^A/B/ G/B/F/B/ E/B/D/B/ C/B/B,/B/ | %14
 ^Acfc d=cGf | e/a/g/a/ f/a/g/a/ d/a/b/a/ g/f/e/d/ | eBeB cAFB | EF/G/ AG FBAG | %18
 FE/F/ GF Ee d/c/d/e/ | f/e/g/f/ e/d/c/B/ B4 | z/ F/E/F/ D/F/B/G/ A/F/E/F/ D/F/A/F/ | %21
 GF/G/ EB GBEG | Ac a2- a/B/A/B/ g2- | gcfc =dBG^e | f/c/B/c/ A/c/f/d/ e/c/B/c/ ^A/c/e/c/ | %25
 dc/d/ Bf dfBd | e/B/A/B/ G/B/=d/B/ c/A/G/A/ F/A/c/A/ | B/G/F/G/ E/G/B/G/ A/F/E/F/ D/F/A/F/ | %28
 GF/G/ A/G/F/E/ ce/4d/4c/4d/4 e2- | e2 d2 e4 | z/ F/E/F/ D/F/B/G/ A/F/E/F/ D/F/A/F/ | %31
 GF/G/ EB GBEG | Ac a2- a/B/A/B/ g2- | gcfc =dBG^e | f/c/B/c/ A/c/f/d/ e/c/B/c/ ^A/c/e/c/ | %35
 dc/d/ Bf dfBd | e/B/A/B/ G/B/=d/B/ c/A/G/A/ F/A/c/A/ | B/G/F/G/ E/G/B/G/ A/F/E/F/ D/F/A/F/ | %38
 GF/G/ A/G/F/E/ ce/4d/4c/4d/4 e2- | e2 d2 e4 |] %40
V:2
 E,/E/D/E/ G,/E/D/E/ A,/E/F/E/ D/C/B,/A,/ | G,/E/D/E/ C/E/B,/E/ A,/E/G,/E/ F,/E/E,/E/ | %2
 DF,B,F, G,E,C,F, | B,,C,/D,/ E,D, C,F,E,D, | %4
 C,/F,/E,/F,/ D,/F,/E,/F,/ =C,/F,/G,/F,/ E,/D,/^C,/=C,/ | C,E,A,E, F,D,B,,A, | %6
 G,/E,/D,/E,/ C,/E,/D,/E,/ A,,/E,/F,/E,/ D,/C,/B,,/A,,/ | %7
 G,,/E,/D,/E,/ C,/E,/B,,/E,/ A,,/E,/G,,/E,/ F,,/E,/E,,/E,/ | %8
 B,,/D,/C,/D,/ E,/B,,/F,/B,,/ G,/B,,/^A,/B,,/ B,G, | D,B,,F,F,, B,,2 B,,,2 | %10
 E,/E/D/E/ G,/E/D/E/ A,/E/F/E/ D/C/B,/A,/ | G,/E/D/E/ C/E/B,/E/ A,/E/G,/E/ F,/E/E,/E/ | %12
 DF,B,F, G,E,C,F, | B,,C,/D,/ E,D, C,F,E,D, | %14
 C,/F,/E,/F,/ D,/F,/E,/F,/ =C,/F,/G,/F,/ E,/D,/^C,/=C,/ | C,E,A,E, F,D,B,,A, | %16
 G,/E,/D,/E,/ C,/E,/D,/E,/ A,,/E,/F,/E,/ D,/C,/B,,/A,,/ | %17
 G,,/E,/D,/E,/ C,/E,/B,,/E,/ A,,/E,/G,,/E,/ F,,/E,/E,,/E,/ | %18
 B,,/D,/C,/D,/ E,/B,,/F,/B,,/ G,/B,,/^A,/B,,/ B,G, | D,B,,F,F,, B,,2 B,,,2 | B,,F,B,F, D,F,B,,D, | %21
 E,/B,/A,/B,/ G,/B,/E/C/ =D/B,/A,/B,/ G,/B,/D/B,/ | %22
 C/A,/G,/A,/ F,/A,/C/A,/ B,/G,/F,/G,/ ^E,/G,/B,/G,/ | %23
 A,/F,/^E,/F,/ =D,/F,/E,/F,/ B,,/F,/E,/F,/ C,/C/B,/C/ | A,CFC ^A,CF,A, | %25
 B,/F,/E,/F,/ D,/F,/B,/G,/ A,/F,/E,/F,/ D,/F,/A,/F,/ | G,B,EG, A,CDF, | G,B,CE, F,A,B,D, | %28
 E,/B,/E/D/ C/B,/A,/G,/ A,/G,/F,/A,/ G,/E/D/E/ | A,/E/D/E/ B,B,, E,/E,,/G,,/B,,/ E,2 | %30
 B,,F,B,F, D,F,B,,D, | E,/B,/A,/B,/ G,/B,/E/C/ =D/B,/A,/B,/ G,/B,/D/B,/ | %32
 C/A,/G,/A,/ F,/A,/C/A,/ B,/G,/F,/G,/ ^E,/G,/B,/G,/ | %33
 A,/F,/^E,/F,/ =D,/F,/E,/F,/ B,,/F,/E,/F,/ C,/C/B,/C/ | A,CFC ^A,CF,A, | %35
 B,/F,/E,/F,/ D,/F,/B,/G,/ A,/F,/E,/F,/ D,/F,/A,/F,/ | G,B,EG, A,CDF, | G,B,CE, F,A,B,D, | %38
 E,/B,/E/D/ C/B,/A,/G,/ A,/G,/F,/A,/ G,/E/D/E/ | A,/E/D/E/ B,B,, E,/E,,/G,,/B,,/ E,2 |] %40
V:3
 x8 | x8 | x8 | x8 | x8 | x8 | x8 | x8 | x8 | z4 z/ F/D/B,/- B,2 | x8 | x8 | x8 | x8 | x8 | x8 | %16
 x8 | x8 | x8 | z4 z/ F/D/B,/- B,2 | x8 | x8 | x8 | x8 | x8 | x8 | x8 | x8 | z4 z2 eB | cAFB G4 | %30
 x8 | x8 | x8 | x8 | x8 | x8 | x8 | x8 | z4 z2 eB | cAFB G4 |] %40

